X:1
T:Peterson, 87.87
T:Peterson, 87.87
T:Emily Swan Perkins, 1921
T:Public Domain Courtesy of the Cyber Hymnal™
C:Emily Swan Perkins, 1921
Z:Public Domain
Z:Courtesy of the Cyber Hymnal™
%%score ( 1 2 ) ( 3 4 )
L:1/8
Q:1/4=110
M:4/4
K:G
V:1 treble 
V:2 treble 
V:3 bass 
V:4 bass 
V:1
 [GB]2 [^EB]2 | [Fc]3 [FA] [CF]2 [CE]2 x | [B,E]2 [B,D]2 [GB]2 [^EB]2 | [Fc]3 [FA] [CF]2 [CE]2 x | %4
 [^CE]2 D2 [DB]2 [DB]2 | e3 z d [=Gc]2 [GB]2 | [=Fd]2 [Ec]2 [EB]2 [EA]2 | [DG]2 (G^G) [FA]2 [DF]2 | %8
 [DG]4 |] %9
V:2
 x4 | x9 | x8 | x9 | x2 D2 x4 | E2 ^G2 x5 | x8 | x2 D2 x4 | x4 |] %9
V:3
 [G,D]2 [^G,D]2 | D3 z C [D,A,]2 [D,F,]2 | [G,,G,]2 [G,,G,]2 [G,D]2 [^G,D]2 | %3
 D3 z C [D,A,]2 [F,A,]2 | ^A,2 B,2 [G,B,]2 [=F,A,]2 | [E,^G,]2 [E,B,]2 [E,E]2 [E,D]2 x | %6
 [^G,B,]2 [A,C]2 [C,D]2 [C,C]2 | [D,B,]2 [D,B,]2 [D,C]2 [D,C]2 | [G,,B,]4 |] %9
V:4
 x4 | A,2 D,2 x5 | x8 | A,2 D,2 x5 | G,4 x4 | x9 | x8 | x8 | x4 |] %9

